src/lib/packages/icons/src/assets/filled/chat-times-alt.svg

<svg width="24" height="24" viewBox="0 0 24 24" fill="none" xmlns="http://www.w3.org/2000/svg">
<path d="M12.001 3C7.031 3 3.00197 7.02902 3.00197 11.999C3.00197 13.339 3.30205 14.619 3.83205 15.758C4.04205 16.198 4.04211 16.708 3.89211 17.178L3.05202 19.678C2.79202 20.458 3.54204 21.208 4.32204 20.948L6.82204 20.108C7.29204 19.958 7.80196 19.958 8.24196 20.168C9.38196 20.698 10.662 20.998 12.002 20.998C16.972 20.998 21.001 16.969 21.001 11.999C21 7.02902 16.971 3 12.001 3ZM15.0301 13.97C15.3231 14.263 15.3231 14.738 15.0301 15.031C14.8841 15.177 14.692 15.251 14.5 15.251C14.308 15.251 14.116 15.178 13.97 15.031L12 13.061L10.0301 15.031C9.88405 15.177 9.69202 15.251 9.50002 15.251C9.30802 15.251 9.11599 15.178 8.96999 15.031C8.67699 14.738 8.67699 14.263 8.96999 13.97L10.94 12L8.96999 10.03C8.67699 9.73703 8.67699 9.26199 8.96999 8.96899C9.26299 8.67599 9.73803 8.67599 10.031 8.96899L12.001 10.939L13.971 8.96899C14.264 8.67599 14.739 8.67599 15.032 8.96899C15.325 9.26199 15.325 9.73703 15.032 10.03L13.062 12L15.0301 13.97Z" fill="currentColor"/>
</svg>

<svg xmlns="http://www.w3.org/2000/svg" width="24" height="24" fill="none"><path fill="currentColor" d="M12.001 3a9 9 0 0 0-8.999 8.999c0 1.34.3 2.62.83 3.759.21.44.21.95.06 1.42l-.84 2.5c-.26.78.49 1.53 1.27 1.27l2.5-.84c.47-.15.98-.15 1.42.06 1.14.53 2.42.83 3.76.83A8.999 8.999 0 1 0 12.001 3Zm3.03 10.97a.75.75 0 0 1-1.061 1.061L12 13.061l-1.97 1.97a.749.749 0 0 1-1.06 0 .75.75 0 0 1 0-1.061L10.94 12l-1.97-1.97a.75.75 0 1 1 1.061-1.061l1.97 1.97 1.97-1.97a.75.75 0 1 1 1.061 1.061L13.062 12l1.968 1.97Z"/></svg>
